qtOfs/res/icons/scene.svg

<svg width="210" xmlns="http://www.w3.org/2000/svg" viewBox="0 0 220 220" height="210" enable-background="new 0 0 220 220">
<defs>
<linearGradient id="SVGID_6_" y1="219.292" x1="161.375" y2="143.421" gradientUnits="userSpaceOnUse" x2="147.997">
<stop offset=".006" stop-color="#f16522"/>
<stop offset="1" stop-color="#ffc10e"/>
</linearGradient>
<linearGradient id="SVGID_5_" y1="137.715" x1="161.17" y2="81.281" gradientUnits="userSpaceOnUse" x2="171.121">
<stop offset="0" stop-color="#f58a1f"/>
<stop offset=".09" stop-color="#fbae17"/>
<stop offset="1" stop-color="#fd0"/>
</linearGradient>
<linearGradient id="SVGID_7_" y1="219.096" x1="161.171" y2="162.66" gradientUnits="userSpaceOnUse" x2="171.123">
<stop offset="0" stop-color="#f58a1f"/>
<stop offset=".09" stop-color="#fbae17"/>
<stop offset="1" stop-color="#fd0"/>
</linearGradient>
<linearGradient id="SVGID_4_" y1="137.911" x1="161.374" y2="62.044" gradientUnits="userSpaceOnUse" x2="147.996">
<stop offset=".006" stop-color="#f16522"/>
<stop offset="1" stop-color="#ffc10e"/>
</linearGradient>
<linearGradient id="SVGID_2_" y1="70.991" x1="51.563" y2="-4.878" gradientUnits="userSpaceOnUse" x2="38.185">
<stop offset=".006" stop-color="#f16522"/>
<stop offset="1" stop-color="#ffc10e"/>
</linearGradient>
<linearGradient gradientTransform="matrix(.93939 0 0 .93939 6.66668 6.66667)" id="SVGID_1_" x1="56.315" gradientUnits="userSpaceOnUse" x2="214.379">
<stop offset="0" stop-color="#fff"/>
<stop offset=".033" stop-color="#f0f1f1"/>
<stop offset=".113" stop-color="#d2d3d4"/>
<stop offset=".197" stop-color="#babbbe"/>
<stop offset=".286" stop-color="#a9abae"/>
<stop offset=".384" stop-color="#9fa1a4"/>
<stop offset=".506" stop-color="#9c9ea1"/>
<stop offset=".625" stop-color="#9fa1a4"/>
<stop offset=".72" stop-color="#a9abae"/>
<stop offset=".807" stop-color="#babbbe"/>
<stop offset=".89" stop-color="#d2d3d4"/>
<stop offset=".968" stop-color="#f0f1f1"/>
<stop offset="1" stop-color="#fff"/>
</linearGradient>
<linearGradient id="SVGID_3_" y1="70.795" x1="51.358" y2="14.361" gradientUnits="userSpaceOnUse" x2="61.309">
<stop offset="0" stop-color="#f58a1f"/>
<stop offset=".09" stop-color="#fbae17"/>
<stop offset="1" stop-color="#fd0"/>
</linearGradient>
</defs>
<path fill="url(#SVGID_1_)" fill-rule="evenodd" d="m213.3333,206.6693c0,3.6787-33.2386,6.6641-74.2422,6.6641-41.0036,0-74.2422-2.9854-74.2422-6.6641 0-3.6843 33.2386-6.6735 74.2422-6.6735 41.0045,.0009 74.2422,2.9891 74.2422,6.6735z"/>
<g transform="matrix(.93939 0 0 .93939 6.66668 6.66667)">
<path fill="#9c9ea1" d="m107.271,175.847c-12.8,0-30.192,0-30.192,0-10.17,0-18.444-7.664-18.444-17.084v-48.719c0,0 29.768,0 51.599,0l-2.877-15.124c-21.579,0-48.721,0-48.721,0v-23.764h-16.327v87.607c0,17.761 15.6,32.207 34.771,32.207 0,0 20.044,0 33.074,0l-2.883-15.123z"/>
</g>
<g transform="matrix(.93939 0 0 .93939 6.66668 6.66667)">
<path fill="url(#SVGID_2_)" d="m67.555,11.601h-24.752c-2.018-6.523-8.945-11.601-16.19-11.601h-14.8c-7.768,0-12.965,5.841-11.593,13.048l7.618,40.019c1.376,7.206 8.79,13.047 16.563,13.047h53.524c7.779,0 12.977-5.841 11.605-13.047l-5.408-28.419c-1.373-7.206-8.791-13.047-16.567-13.047z"/>
<path fill="url(#SVGID_3_)" d="m95.386,52.035c-1.486,7.773-9.487,14.08-17.879,14.08h-51.292c-8.392,0-14.01-6.306-12.527-14.08l3.593-18.914c1.487-7.773 9.495-14.078 17.887-14.078h51.292c8.392,0 14.002,6.304 12.52,14.078l-3.594,18.914z"/>
<path fill="#fff" d="m86.762,23.423h-51.292c-6.706,0-13.103,5.045-14.287,11.25l-.693,3.607c1.188-6.203 7.584-11.25 14.29-11.25h51.289c6.699,0 11.192,5.047 10.008,11.25l.69-3.606c1.176-6.206-3.31-11.251-10.005-11.251z"/>
<path fill="url(#SVGID_4_)" d="m177.366,78.521h-24.741c-2.024-6.521-8.956-11.599-16.2-11.599h-14.796c-7.772,0-12.962,5.841-11.598,13.046l7.621,40.019c1.372,7.206 8.79,13.046 16.559,13.046h53.527c7.776,0 12.974-5.84 11.602-13.046l-5.407-28.419c-1.374-7.204-8.788-13.047-16.567-13.047z"/>
<path fill="url(#SVGID_5_)" d="m205.197,118.955c-1.482,7.773-9.487,14.078-17.879,14.078h-51.292c-8.393,0-14.011-6.305-12.523-14.078l3.593-18.913c1.482-7.775 9.495-14.08 17.887-14.08h51.292c8.392,0 14.003,6.304 12.516,14.08l-3.594,18.913z"/>
<path fill="#fff" d="m196.573,90.344h-51.292c-6.703,0-13.103,5.046-14.287,11.249l-.689,3.61c1.185-6.204 7.584-11.252 14.286-11.252h51.3c6.691,0 11.185,5.048 9.997,11.252l.689-3.61c1.187-6.203-3.305-11.249-10.004-11.249z"/>
<path fill="url(#SVGID_6_)" d="m177.366,159.896h-24.741c-2.024-6.52-8.956-11.597-16.2-11.597h-14.796c-7.772,0-12.962,5.843-11.598,13.046l7.621,40.019c1.372,7.21 8.79,13.05 16.559,13.05h53.527c7.776,0 12.974-5.84 11.602-13.05l-5.407-28.415c-1.374-7.21-8.788-13.053-16.567-13.053z"/>
<path fill="url(#SVGID_7_)" d="m205.197,200.332c-1.482,7.777-9.487,14.082-17.879,14.082h-51.292c-8.393,0-14.011-6.305-12.523-14.082l3.593-18.912c1.482-7.773 9.495-14.078 17.887-14.078h51.292c8.392,0 14.003,6.305 12.516,14.078l-3.594,18.912z"/>
<path fill="#fff" d="m196.573,171.723h-51.292c-6.703,0-13.103,5.047-14.287,11.248l-.689,3.608c1.185-6.201 7.584-11.252 14.286-11.252h51.3c6.691,0 11.185,5.051 9.997,11.252l.689-3.608c1.187-6.201-3.305-11.248-10.004-11.248z"/>
</g>
</svg>

<?xml version="1.0" encoding="UTF-8" standalone="no"?>
<!-- Generator: Adobe Illustrator 13.0.0, SVG Export Plug-In . SVG Version: 6.00 Build 14948)  -->
<svg
   xmlns:dc="http://purl.org/dc/elements/1.1/"
   xmlns:cc="http://creativecommons.org/ns#"
   xmlns:rdf="http://www.w3.org/1999/02/22-rdf-syntax-ns#"
   xmlns:svg="http://www.w3.org/2000/svg"
   xmlns="http://www.w3.org/2000/svg"
   xmlns:sodipodi="http://sodipodi.sourceforge.net/DTD/sodipodi-0.dtd"
   xmlns:inkscape="http://www.inkscape.org/namespaces/inkscape"
   version="1.0"
   id="Layer_1"
   x="0px"
   y="0px"
   width="210"
   height="210"
   viewBox="0 0 220 220"
   enable-background="new 0 0 220 220"
   xml:space="preserve"
   sodipodi:version="0.32"
   inkscape:version="0.46"
   sodipodi:docname="scene.svg"
   inkscape:output_extension="org.inkscape.output.svg.inkscape"><metadata
   id="metadata95"><rdf:RDF><cc:Work
       rdf:about=""><dc:format>image/svg+xml</dc:format><dc:type
         rdf:resource="http://purl.org/dc/dcmitype/StillImage" /></cc:Work></rdf:RDF></metadata><defs
   id="defs93"><inkscape:perspective
     sodipodi:type="inkscape:persp3d"
     inkscape:vp_x="0 : 110 : 1"
     inkscape:vp_y="0 : 1000 : 0"
     inkscape:vp_z="220 : 110 : 1"
     inkscape:persp3d-origin="110 : 73.333333 : 1"
     id="perspective97" /></defs><sodipodi:namedview
   inkscape:window-height="750"
   inkscape:window-width="1264"
   inkscape:pageshadow="2"
   inkscape:pageopacity="0.0"
   guidetolerance="10.0"
   gridtolerance="10.0"
   objecttolerance="10.0"
   borderopacity="1.0"
   bordercolor="#666666"
   pagecolor="#ffffff"
   id="base"
   showgrid="false"
   inkscape:zoom="2.1"
   inkscape:cx="110"
   inkscape:cy="110.43333"
   inkscape:window-x="0"
   inkscape:window-y="14"
   inkscape:current-layer="Layer_1" />
<linearGradient
   id="SVGID_1_"
   gradientUnits="userSpaceOnUse"
   x1="56.314899"
   y1="212.9014"
   x2="214.37891"
   y2="212.9014"
   gradientTransform="matrix(0.9393939,0,0,0.9393939,6.6666847,6.6666667)">
	<stop
   offset="0"
   style="stop-color:#FFFFFF"
   id="stop4" />
	<stop
   offset="0.0326"
   style="stop-color:#F0F1F1"
   id="stop6" />
	<stop
   offset="0.1128"
   style="stop-color:#D2D3D4"
   id="stop8" />
	<stop
   offset="0.1971"
   style="stop-color:#BABBBE"
   id="stop10" />
	<stop
   offset="0.2864"
   style="stop-color:#A9ABAE"
   id="stop12" />
	<stop
   offset="0.3841"
   style="stop-color:#9FA1A4"
   id="stop14" />
	<stop
   offset="0.5056"
   style="stop-color:#9C9EA1"
   id="stop16" />
	<stop
   offset="0.6245"
   style="stop-color:#9FA1A4"
   id="stop18" />
	<stop
   offset="0.7199"
   style="stop-color:#A9ABAE"
   id="stop20" />
	<stop
   offset="0.8072"
   style="stop-color:#BABBBE"
   id="stop22" />
	<stop
   offset="0.8897"
   style="stop-color:#D2D3D4"
   id="stop24" />
	<stop
   offset="0.9681"
   style="stop-color:#F0F1F1"
   id="stop26" />
	<stop
   offset="1"
   style="stop-color:#FFFFFF"
   id="stop28" />
</linearGradient>
<path
   clip-rule="evenodd"
   d="M 213.33333,206.66927 C 213.33333,210.34794 180.09476,213.33333 139.09116,213.33333 C 98.087556,213.33333 64.848983,210.34794 64.848983,206.66927 C 64.848983,202.98497 98.087556,199.99582 139.09116,199.99582 C 180.0957,199.99676 213.33333,202.98497 213.33333,206.66927 z"
   id="path30"
   style="fill:url(#SVGID_1_);fill-rule:evenodd" />
<g
   id="g32"
   transform="matrix(0.9393939,0,0,0.9393939,6.6666847,6.6666667)">
	<path
   d="M 107.271,175.847 C 94.471,175.847 77.079,175.847 77.079,175.847 C 66.909,175.847 58.635,168.183 58.635,158.763 L 58.635,110.044 C 58.635,110.044 88.403,110.044 110.234,110.044 L 107.357,94.92 C 85.778,94.92 58.636,94.92 58.636,94.92 L 58.636,71.156 L 42.309,71.156 L 42.309,158.763 C 42.309,176.524 57.909,190.97 77.08,190.97 C 77.08,190.97 97.124,190.97 110.154,190.97 L 107.271,175.847 z"
   id="path34"
   style="fill:#9c9ea1" />
	<g
   id="g36">
		<linearGradient
   id="SVGID_2_"
   gradientUnits="userSpaceOnUse"
   x1="51.563"
   y1="70.991203"
   x2="38.185101"
   y2="-4.8783998">
			<stop
   offset="0.0056"
   style="stop-color:#F16522"
   id="stop39" />
			<stop
   offset="1"
   style="stop-color:#FFC10E"
   id="stop41" />
		</linearGradient>
		<path
   d="M 67.555,11.601 L 42.803,11.601 C 40.785,5.078 33.858,0 26.613,0 L 11.813,0 C 4.045,0 -1.152,5.841 0.22,13.048 L 7.838,53.067 C 9.214,60.273 16.628,66.114 24.401,66.114 L 77.925,66.114 C 85.704,66.114 90.902,60.273 89.53,53.067 L 84.122,24.648 C 82.749,17.442 75.331,11.601 67.555,11.601 z"
   id="path43"
   style="fill:url(#SVGID_2_)" />
		<linearGradient
   id="SVGID_3_"
   gradientUnits="userSpaceOnUse"
   x1="51.357899"
   y1="70.794899"
   x2="61.308701"
   y2="14.3613">
			<stop
   offset="0"
   style="stop-color:#F58A1F"
   id="stop46" />
			<stop
   offset="0.0899"
   style="stop-color:#FBAE17"
   id="stop48" />
			<stop
   offset="1"
   style="stop-color:#FFDD00"
   id="stop50" />
		</linearGradient>
		<path
   d="M 95.386,52.035 C 93.9,59.808 85.899,66.115 77.507,66.115 L 26.215,66.115 C 17.823,66.115 12.205,59.809 13.688,52.035 L 17.281,33.121 C 18.768,25.348 26.776,19.043 35.168,19.043 L 86.46,19.043 C 94.852,19.043 100.462,25.347 98.98,33.121 L 95.386,52.035 z"
   id="path52"
   style="fill:url(#SVGID_3_)" />
		<path
   d="M 86.762,23.423 L 35.47,23.423 C 28.764,23.423 22.367,28.468 21.183,34.673 L 20.49,38.28 C 21.678,32.077 28.074,27.03 34.78,27.03 L 86.069,27.03 C 92.768,27.03 97.261,32.077 96.077,38.28 L 96.767,34.674 C 97.943,28.468 93.457,23.423 86.762,23.423 z"
   id="path54"
   style="fill:#ffffff" />
		<linearGradient
   id="SVGID_4_"
   gradientUnits="userSpaceOnUse"
   x1="161.3735"
   y1="137.9111"
   x2="147.9962"
   y2="62.044399">
			<stop
   offset="0.0056"
   style="stop-color:#F16522"
   id="stop57" />
			<stop
   offset="1"
   style="stop-color:#FFC10E"
   id="stop59" />
		</linearGradient>
		<path
   d="M 177.366,78.521 L 152.625,78.521 C 150.601,72 143.669,66.922 136.425,66.922 L 121.629,66.922 C 113.857,66.922 108.667,72.763 110.031,79.968 L 117.652,119.987 C 119.024,127.193 126.442,133.033 134.211,133.033 L 187.738,133.033 C 195.514,133.033 200.712,127.193 199.34,119.987 L 193.933,91.568 C 192.559,84.364 185.145,78.521 177.366,78.521 z"
   id="path61"
   style="fill:url(#SVGID_4_)" />
		<linearGradient
   id="SVGID_5_"
   gradientUnits="userSpaceOnUse"
   x1="161.17039"
   y1="137.7148"
   x2="171.12131"
   y2="81.280701">
			<stop
   offset="0"
   style="stop-color:#F58A1F"
   id="stop64" />
			<stop
   offset="0.0899"
   style="stop-color:#FBAE17"
   id="stop66" />
			<stop
   offset="1"
   style="stop-color:#FFDD00"
   id="stop68" />
		</linearGradient>
		<path
   d="M 205.197,118.955 C 203.715,126.728 195.71,133.033 187.318,133.033 L 136.026,133.033 C 127.633,133.033 122.015,126.728 123.503,118.955 L 127.096,100.042 C 128.578,92.267 136.591,85.962 144.983,85.962 L 196.275,85.962 C 204.667,85.962 210.278,92.266 208.791,100.042 L 205.197,118.955 z"
   id="path70"
   style="fill:url(#SVGID_5_)" />
		<path
   d="M 196.573,90.344 L 145.281,90.344 C 138.578,90.344 132.178,95.39 130.994,101.593 L 130.305,105.203 C 131.49,98.999 137.889,93.951 144.591,93.951 L 195.891,93.951 C 202.582,93.951 207.076,98.999 205.888,105.203 L 206.577,101.593 C 207.764,95.39 203.272,90.344 196.573,90.344 z"
   id="path72"
   style="fill:#ffffff" />
		<linearGradient
   id="SVGID_6_"
   gradientUnits="userSpaceOnUse"
   x1="161.3745"
   y1="219.29201"
   x2="147.99651"
   y2="143.4214">
			<stop
   offset="0.0056"
   style="stop-color:#F16522"
   id="stop75" />
			<stop
   offset="1"
   style="stop-color:#FFC10E"
   id="stop77" />
		</linearGradient>
		<path
   d="M 177.366,159.896 L 152.625,159.896 C 150.601,153.376 143.669,148.299 136.425,148.299 L 121.629,148.299 C 113.857,148.299 108.667,154.142 110.031,161.345 L 117.652,201.364 C 119.024,208.574 126.442,214.414 134.211,214.414 L 187.738,214.414 C 195.514,214.414 200.712,208.574 199.34,201.364 L 193.933,172.949 C 192.559,165.739 185.145,159.896 177.366,159.896 z"
   id="path79"
   style="fill:url(#SVGID_6_)" />
		<linearGradient
   id="SVGID_7_"
   gradientUnits="userSpaceOnUse"
   x1="161.1714"
   y1="219.0957"
   x2="171.1225"
   y2="162.6602">
			<stop
   offset="0"
   style="stop-color:#F58A1F"
   id="stop82" />
			<stop
   offset="0.0899"
   style="stop-color:#FBAE17"
   id="stop84" />
			<stop
   offset="1"
   style="stop-color:#FFDD00"
   id="stop86" />
		</linearGradient>
		<path
   d="M 205.197,200.332 C 203.715,208.109 195.71,214.414 187.318,214.414 L 136.026,214.414 C 127.633,214.414 122.015,208.109 123.503,200.332 L 127.096,181.42 C 128.578,173.647 136.591,167.342 144.983,167.342 L 196.275,167.342 C 204.667,167.342 210.278,173.647 208.791,181.42 L 205.197,200.332 z"
   id="path88"
   style="fill:url(#SVGID_7_)" />
		<path
   d="M 196.573,171.723 L 145.281,171.723 C 138.578,171.723 132.178,176.77 130.994,182.971 L 130.305,186.579 C 131.49,180.378 137.889,175.327 144.591,175.327 L 195.891,175.327 C 202.582,175.327 207.076,180.378 205.888,186.579 L 206.577,182.971 C 207.764,176.77 203.272,171.723 196.573,171.723 z"
   id="path90"
   style="fill:#ffffff" />
	</g>
</g>
</svg>
